shader_type canvas_item;

vec2 rotateUV(vec2 uv, vec2 pivot, float rotation) {
    float cosa = cos(rotation);
    float sina = sin(rotation);
    uv -= pivot;
    return vec2(
        cosa * uv.x - sina * uv.y,
        cosa * uv.y + sina * uv.x 
    ) + pivot;
}

void vertex() {
    VERTEX = rotateUV(VERTEX, vec2(16,16), TIME*10.);
}